IMB-X-Files/5df3de8e749203dc3167a479/65369e818884afbae46a35fc_Webflow-badge.svg

<svg fill="none" height="208" viewBox="0 0 886 208" width="886" xmlns="http://www.w3.org/2000/svg"><rect fill="#146ef5" height="208" rx="24" width="885.094"/><g fill="#fff"><path clip-rule="evenodd" d="m192.25 64-40.923 80h-38.438l17.126-33.155h-.768c-14.129 18.341-35.2101 30.415-65.247 33.155v-32.697s19.2153-1.135 30.5115-13.0108h-30.5115v-34.2916h34.2916v28.2044l.7697-.0032 14.0127-28.2012h25.934v28.0255l.77-.0012 14.538-28.0249z" fill-rule="evenodd"/><path d="m216.25 78.9564h31.924v8.2031h-22.251v12.8515h20.952v7.998h-20.952v13.262h22.49v8.203h-32.163zm48.535 50.5176h-9.331v-38.1445h9.126v7.8271l-1.504.6153c.433-1.823 1.265-3.4294 2.495-4.8194 1.231-1.4127 2.746-2.4951 4.546-3.2471 1.8-.7747 3.714-1.1507 5.742-1.1279 2.689 0 5.048.5811 7.076 1.7432 2.028 1.1393 3.588 2.7913 4.682 4.956 1.117 2.1647 1.675 4.7053 1.675 7.6223v24.575h-9.365v-22.661c0-1.686-.285-3.133-.855-4.341-.547-1.23-1.356-2.153-2.426-2.7685-1.049-.638-2.302-.957-3.76-.957-1.527 0-2.906.3759-4.136 1.1279-1.208.7296-2.176 1.7776-2.905 3.1446-.707 1.344-1.06 2.882-1.06 4.614zm35.991-47.4414h9.297v47.4414h-9.297zm-6.938 9.2969h23.174v7.622h-23.174zm45.425 38.9985c-3.783 0-7.132-.82-10.049-2.46-2.894-1.641-5.15-3.965-6.768-6.973s-2.426-6.483-2.426-10.425c0-3.805.82-7.212 2.46-10.22 1.641-3.0302 3.908-5.3886 6.802-7.0748s6.164-2.5293 9.81-2.5293c3.873 0 7.291.8545 10.254 2.5635 2.985 1.7089 5.252 4.2382 6.801 7.5876 1.55 3.327 2.154 7.303 1.812 11.929h-34.009v-6.118l26.9-.069-2.461 1.026c-.046-1.869-.456-3.532-1.231-4.99-.752-1.459-1.811-2.5867-3.179-3.3842-1.367-.8203-2.939-1.2305-4.716-1.2305-1.869 0-3.544.4444-5.025 1.333-1.458.8887-2.609 2.1307-3.452 3.7257-.82 1.595-1.23 3.372-1.23 5.332v3.794c-.023 2.142.387 4.033 1.23 5.674.843 1.618 2.005 2.871 3.486 3.759 1.504.889 3.213 1.333 5.127 1.333 1.39 0 2.666-.239 3.829-.717 1.184-.502 2.176-1.174 2.973-2.017.82-.866 1.402-1.868 1.743-3.008h9.605c-.501 2.621-1.584 4.922-3.247 6.905-1.641 1.982-3.76 3.52-6.358 4.614-2.575 1.094-5.468 1.64-8.681 1.64zm25.19-38.9985h8.955v7.7929l-1.299.1709c.411-1.7773 1.14-3.3154 2.188-4.6142 1.071-1.3216 2.347-2.3242 3.828-3.0078 1.481-.7064 3.088-1.0596 4.819-1.0596.297 0 .581.0228.855.0684.296.0227.569.0569.82.1025v8.75c-.228-.0912-.57-.1595-1.025-.2051-.456-.0683-.9-.1025-1.333-.1025-1.732 0-3.247.3304-4.546.991-1.276.661-2.279 1.641-3.008 2.94-.706 1.276-1.06 2.825-1.06 4.648v21.67h-9.194zm41.118.5127c1.914-.7976 3.885-1.1963 5.913-1.1963 3.304 0 6.255.8317 8.853 2.4951 2.598 1.6406 4.614 3.9648 6.05 6.973 1.458 2.985 2.187 6.437 2.187 10.356 0 3.942-.74 7.417-2.221 10.425-1.482 2.985-3.532 5.286-6.153 6.904-2.597 1.618-5.56 2.416-8.887 2.393-2.073 0-4.056-.388-5.947-1.162-1.891-.798-3.498-1.903-4.819-3.316-1.299-1.413-2.142-2.996-2.529-4.751l1.64.034v23.003h-9.365v-52.6705h9.263l-.035 8.4765-1.64.1026c.478-1.7774 1.401-3.3724 2.768-4.7852 1.39-1.4127 3.031-2.5065 4.922-3.2812zm8.819 8.2718c-1.459-1.003-3.145-1.5043-5.059-1.5043-1.868 0-3.555.5127-5.059 1.5383-1.481 1.002-2.654 2.404-3.52 4.204s-1.31 3.839-1.333 6.118c0 2.324.421 4.398 1.265 6.221.843 1.8 2.016 3.19 3.52 4.17 1.504.957 3.213 1.435 5.127 1.435 1.937 0 3.634-.49 5.093-1.47 1.458-.979 2.575-2.369 3.349-4.169.775-1.801 1.163-3.863 1.163-6.187s-.399-4.375-1.197-6.152c-.774-1.8-1.891-3.202-3.349-4.204zm20.952-8.7845h8.955v7.7929l-1.299.1709c.41-1.7773 1.139-3.3154 2.188-4.6142 1.071-1.3216 2.347-2.3242 3.828-3.0078 1.481-.7064 3.087-1.0596 4.819-1.0596.296 0 .581.0228.854.0684.297.0227.57.0569.821.1025v8.75c-.228-.0912-.57-.1595-1.026-.2051-.455-.0683-.9-.1025-1.333-.1025-1.731 0-3.247.3304-4.545.991-1.277.661-2.279 1.641-3.008 2.94-.707 1.276-1.06 2.825-1.06 4.648v21.67h-9.194zm26.011 0h9.331v38.1445h-9.331zm-.137-14.5948h9.878v9.5704h-9.878zm38.281 25.9083c-.159-.98-.513-1.857-1.06-2.632-.546-.7974-1.276-1.4127-2.187-1.8456-.889-.4557-1.891-.6836-3.008-.6836-1.048.0228-1.971.2279-2.768.6152-.798.3646-1.425.8773-1.88 1.5381-.456.6609-.684 1.3789-.684 2.1529 0 1.049.353 1.903 1.06 2.564.729.638 1.891 1.128 3.486 1.47l6.152 1.367c3.487.752 6.084 2.039 7.793 3.862s2.564 4.17 2.564 7.041c-.023 2.37-.672 4.478-1.948 6.323-1.254 1.823-3.031 3.259-5.332 4.307-2.279 1.025-4.9 1.538-7.862 1.538-3.099 0-5.833-.501-8.203-1.504-2.347-1.002-4.215-2.415-5.605-4.238-1.368-1.846-2.176-4.022-2.427-6.528h9.263c.273 1.617 1.025 2.916 2.255 3.896 1.231.957 2.803 1.424 4.717 1.401 1.185 0 2.233-.17 3.145-.512.911-.365 1.606-.855 2.085-1.47.478-.638.718-1.356.718-2.153-.046-1.048-.422-1.903-1.128-2.564-.707-.661-1.812-1.162-3.316-1.504l-6.015-1.367c-3.646-.82-6.335-2.119-8.067-3.896-1.732-1.778-2.586-4.113-2.563-7.007-.023-2.347.592-4.4549 1.845-6.3234 1.254-1.8685 2.997-3.3154 5.23-4.3408 2.256-1.0482 4.831-1.5837 7.724-1.6065 2.917 0 5.469.5013 7.657 1.5039 2.187.9799 3.919 2.3812 5.195 4.2041 1.276 1.823 2.039 3.9537 2.29 6.3917zm33.838 27.685c-3.783 0-7.132-.82-10.049-2.46-2.894-1.641-5.15-3.965-6.767-6.973-1.618-3.008-2.427-6.483-2.427-10.425 0-3.805.82-7.212 2.461-10.22 1.64-3.0302 3.908-5.3886 6.801-7.0748 2.894-1.6862 6.164-2.5293 9.81-2.5293 3.874 0 7.292.8545 10.254 2.5635 2.985 1.7089 5.252 4.2382 6.802 7.5876 1.549 3.327 2.153 7.303 1.811 11.929h-34.009v-6.118l26.9-.069-2.461 1.026c-.046-1.869-.456-3.532-1.231-4.99-.751-1.459-1.811-2.5867-3.178-3.3842-1.367-.8203-2.94-1.2305-4.717-1.2305-1.869 0-3.543.4444-5.024 1.333-1.459.8887-2.61 2.1307-3.453 3.7257-.82 1.595-1.23 3.372-1.23 5.332v3.794c-.023 2.142.387 4.033 1.23 5.674.843 1.618 2.006 2.871 3.487 3.759 1.504.889 3.213 1.333 5.127 1.333 1.39 0 2.666-.239 3.828-.717 1.185-.502 2.176-1.174 2.973-2.017.821-.866 1.402-1.868 1.744-3.008h9.604c-.501 2.621-1.584 4.922-3.247 6.905-1.641 1.982-3.76 3.52-6.357 4.614-2.575 1.094-5.469 1.64-8.682 1.64zm41.802-51.3716h19.892c3.509 0 6.586.7064 9.229 2.1192 2.666 1.4127 4.717 3.3951 6.152 5.9472 1.458 2.5293 2.188 5.4118 2.188 8.6475s-.73 6.1177-2.188 8.6477c-1.458 2.529-3.52 4.511-6.186 5.947s-5.754 2.153-9.263 2.153h-13.501v-8.169h12.168c1.823 0 3.395-.353 4.717-1.059 1.344-.729 2.37-1.732 3.076-3.008s1.071-2.7458 1.094-4.4092c0-1.6862-.354-3.1673-1.06-4.4433-.706-1.2989-1.743-2.3015-3.11-3.0078-1.345-.7064-2.928-1.0596-4.751-1.0596h-8.784v42.2119h-9.673zm58.447 51.2016c-3.304 0-6.255-.832-8.853-2.496-2.574-1.663-4.602-3.987-6.084-6.972-1.481-3.008-2.21-6.472-2.187-10.391 0-3.919.752-7.371 2.256-10.3562 1.504-2.9851 3.555-5.2865 6.152-6.9043 2.621-1.6407 5.594-2.4496 8.921-2.4268 2.188 0 4.216.4102 6.084 1.2305 1.869.7975 3.418 1.9026 4.648 3.3154 1.254 1.39 2.074 2.9053 2.461 4.5459l-1.674-.0684v-8.3056h9.365v38.1445h-9.263l.034-7.383 1.641-.957c-.547 1.686-1.481 3.213-2.803 4.58-1.321 1.367-2.916 2.45-4.785 3.247-1.868.798-3.839 1.197-5.913 1.197zm2.051-7.93c1.937 0 3.657-.501 5.161-1.504s2.677-2.404 3.52-4.204c.844-1.8 1.276-3.874 1.299-6.221 0-2.324-.421-4.386-1.264-6.186-.844-1.801-2.028-3.19-3.555-4.1702-1.504-.9799-3.224-1.4698-5.161-1.4698-1.914 0-3.589.5013-5.025 1.5039-1.435.9801-2.54 2.3701-3.315 4.1701s-1.162 3.862-1.162 6.186c0 2.325.387 4.387 1.162 6.187.797 1.777 1.914 3.179 3.35 4.204 1.435 1.003 3.098 1.504 4.99 1.504zm27.344-30.8985h8.955v7.7929l-1.299.1709c.41-1.7773 1.139-3.3154 2.187-4.6142 1.071-1.3216 2.347-2.3242 3.828-3.0078 1.482-.7064 3.088-1.0596 4.82-1.0596.296 0 .581.0228.854.0684.296.0227.57.0569.821.1025v8.75c-.228-.0912-.57-.1595-1.026-.2051-.456-.0683-.9-.1025-1.333-.1025-1.732 0-3.247.3304-4.546.991-1.276.661-2.278 1.641-3.008 2.94-.706 1.276-1.059 2.825-1.059 4.648v21.67h-9.194zm31.958-9.2969h9.296v47.4414h-9.296zm-6.939 9.2969h23.174v7.622h-23.174zm37.734 38.1445h-9.331v-38.1445h9.126v7.8271l-1.504.6153c.433-1.823 1.265-3.4294 2.496-4.8194 1.23-1.4127 2.745-2.4951 4.545-3.2471 1.801-.7747 3.715-1.1507 5.743-1.1279 2.688 0 5.047.5811 7.075 1.7432 2.028 1.1393 3.589 2.7913 4.682 4.956 1.117 2.1647 1.675 4.7053 1.675 7.6223v24.575h-9.365v-22.661c0-1.686-.285-3.133-.854-4.341-.547-1.23-1.356-2.153-2.427-2.7685-1.048-.638-2.302-.957-3.76-.957-1.527 0-2.905.3759-4.136 1.1279-1.207.7296-2.176 1.7776-2.905 3.1446-.706 1.344-1.06 2.882-1.06 4.614zm50.005.854c-3.782 0-7.132-.82-10.049-2.46-2.893-1.641-5.149-3.965-6.767-6.973s-2.427-6.483-2.427-10.425c0-3.805.82-7.212 2.461-10.22 1.641-3.0302 3.908-5.3886 6.802-7.0748s6.164-2.5293 9.809-2.5293c3.874 0 7.292.8545 10.254 2.5635 2.985 1.7089 5.253 4.2382 6.802 7.5876 1.55 3.327 2.153 7.303 1.812 11.929h-34.009v-6.118l26.899-.069-2.461 1.026c-.045-1.869-.455-3.532-1.23-4.99-.752-1.459-1.812-2.5867-3.179-3.3842-1.367-.8203-2.939-1.2305-4.717-1.2305-1.868 0-3.543.4444-5.024 1.333-1.458.8887-2.609 2.1307-3.452 3.7257-.821 1.595-1.231 3.372-1.231 5.332v3.794c-.023 2.142.388 4.033 1.231 5.674.843 1.618 2.005 2.871 3.486 3.759 1.504.889 3.213 1.333 5.127 1.333 1.39 0 2.666-.239 3.828-.717 1.185-.502 2.176-1.174 2.974-2.017.82-.866 1.401-1.868 1.743-3.008h9.604c-.501 2.621-1.583 4.922-3.247 6.905-1.64 1.982-3.759 3.52-6.357 4.614-2.575 1.094-5.469 1.64-8.682 1.64zm25.191-38.9985h8.955v7.7929l-1.299.1709c.41-1.7773 1.139-3.3154 2.187-4.6142 1.071-1.3216 2.347-2.3242 3.829-3.0078 1.481-.7064 3.087-1.0596 4.819-1.0596.296 0 .581.0228.854.0684.297.0227.57.0569.821.1025v8.75c-.228-.0912-.57-.1595-1.026-.2051-.455-.0683-.9-.1025-1.333-.1025-1.731 0-3.247.3304-4.546.991-1.276.661-2.278 1.641-3.007 2.94-.707 1.276-1.06 2.825-1.06 4.648v21.67h-9.194z"/></g></svg>

<svg width="886" height="208" viewBox="0 0 886 208" fill="none" xmlns="http://www.w3.org/2000/svg">
<rect width="885.094" height="208" rx="24" fill="#146EF5"/>
<path fill-rule="evenodd" clip-rule="evenodd" d="M192.25 64L151.327 144H112.889L130.015 110.845H129.247C115.118 129.186 94.0369 141.26 64 144V111.303C64 111.303 83.2153 110.168 94.5115 98.2922H64V64.0006H98.2916V92.205L99.0613 92.2018L113.074 64.0006H139.008V92.0261L139.778 92.0249L154.316 64H192.25Z" fill="white"/>
<path d="M216.25 78.9564H248.174V87.1595H225.923V100.011H246.875V108.009H225.923V121.271H248.413V129.474H216.25V78.9564ZM264.785 129.474H255.454V91.3295H264.58V99.1566L263.076 99.7719C263.509 97.9489 264.341 96.3425 265.571 94.9525C266.802 93.5398 268.317 92.4574 270.117 91.7054C271.917 90.9307 273.831 90.5547 275.859 90.5775C278.548 90.5775 280.907 91.1586 282.935 92.3207C284.963 93.46 286.523 95.112 287.617 97.2767C288.734 99.4414 289.292 101.982 289.292 104.899V129.474H279.927V106.813C279.927 105.127 279.642 103.68 279.072 102.472C278.525 101.242 277.716 100.319 276.646 99.7035C275.597 99.0655 274.344 98.7465 272.886 98.7465C271.359 98.7465 269.98 99.1224 268.75 99.8744C267.542 100.604 266.574 101.652 265.845 103.019C265.138 104.363 264.785 105.901 264.785 107.633V129.474ZM300.776 82.0326H310.073V129.474H300.776V82.0326ZM293.838 91.3295H317.012V98.9515H293.838V91.3295ZM339.263 130.328C335.48 130.328 332.131 129.508 329.214 127.868C326.32 126.227 324.064 123.903 322.446 120.895C320.828 117.887 320.02 114.412 320.02 110.47C320.02 106.665 320.84 103.258 322.48 100.25C324.121 97.2198 326.388 94.8614 329.282 93.1752C332.176 91.489 335.446 90.6459 339.092 90.6459C342.965 90.6459 346.383 91.5004 349.346 93.2094C352.331 94.9183 354.598 97.4476 356.147 100.797C357.697 104.124 358.301 108.1 357.959 112.726H323.95V106.608L350.85 106.539L348.389 107.565C348.343 105.696 347.933 104.033 347.158 102.575C346.406 101.116 345.347 99.9883 343.979 99.1908C342.612 98.3705 341.04 97.9603 339.263 97.9603C337.394 97.9603 335.719 98.4047 334.238 99.2933C332.78 100.182 331.629 101.424 330.786 103.019C329.966 104.614 329.556 106.391 329.556 108.351V112.145C329.533 114.287 329.943 116.178 330.786 117.819C331.629 119.437 332.791 120.69 334.272 121.578C335.776 122.467 337.485 122.911 339.399 122.911C340.789 122.911 342.065 122.672 343.228 122.194C344.412 121.692 345.404 121.02 346.201 120.177C347.021 119.311 347.603 118.309 347.944 117.169H357.549C357.048 119.79 355.965 122.091 354.302 124.074C352.661 126.056 350.542 127.594 347.944 128.688C345.369 129.782 342.476 130.328 339.263 130.328ZM364.453 91.3295H373.408V99.1224L372.109 99.2933C372.52 97.516 373.249 95.9779 374.297 94.6791C375.368 93.3575 376.644 92.3549 378.125 91.6713C379.606 90.9649 381.213 90.6117 382.944 90.6117C383.241 90.6117 383.525 90.6345 383.799 90.6801C384.095 90.7028 384.368 90.737 384.619 90.7826V99.5326C384.391 99.4414 384.049 99.3731 383.594 99.3275C383.138 99.2592 382.694 99.225 382.261 99.225C380.529 99.225 379.014 99.5554 377.715 100.216C376.439 100.877 375.436 101.857 374.707 103.156C374.001 104.432 373.647 105.981 373.647 107.804V129.474H364.453V91.3295ZM405.571 91.8422C407.485 91.0446 409.456 90.6459 411.484 90.6459C414.788 90.6459 417.739 91.4776 420.337 93.141C422.935 94.7816 424.951 97.1058 426.387 100.114C427.845 103.099 428.574 106.551 428.574 110.47C428.574 114.412 427.834 117.887 426.353 120.895C424.871 123.88 422.821 126.181 420.2 127.799C417.603 129.417 414.64 130.215 411.313 130.192C409.24 130.192 407.257 129.804 405.366 129.03C403.475 128.232 401.868 127.127 400.547 125.714C399.248 124.301 398.405 122.718 398.018 120.963L399.658 120.997V144H390.293V91.3295H399.556L399.521 99.806L397.881 99.9086C398.359 98.1312 399.282 96.5362 400.649 95.1234C402.039 93.7107 403.68 92.6169 405.571 91.8422ZM414.39 100.114C412.931 99.111 411.245 98.6097 409.331 98.6097C407.463 98.6097 405.776 99.1224 404.272 100.148C402.791 101.15 401.618 102.552 400.752 104.352C399.886 106.152 399.442 108.191 399.419 110.47C399.419 112.794 399.84 114.868 400.684 116.691C401.527 118.491 402.7 119.881 404.204 120.861C405.708 121.818 407.417 122.296 409.331 122.296C411.268 122.296 412.965 121.806 414.424 120.826C415.882 119.847 416.999 118.457 417.773 116.657C418.548 114.856 418.936 112.794 418.936 110.47C418.936 108.146 418.537 106.095 417.739 104.318C416.965 102.518 415.848 101.116 414.39 100.114ZM435.342 91.3295H444.297V99.1224L442.998 99.2933C443.408 97.516 444.137 95.9779 445.186 94.6791C446.257 93.3575 447.533 92.3549 449.014 91.6713C450.495 90.9649 452.101 90.6117 453.833 90.6117C454.129 90.6117 454.414 90.6345 454.687 90.6801C454.984 90.7028 455.257 90.737 455.508 90.7826V99.5326C455.28 99.4414 454.938 99.3731 454.482 99.3275C454.027 99.2592 453.582 99.225 453.149 99.225C451.418 99.225 449.902 99.5554 448.604 100.216C447.327 100.877 446.325 101.857 445.596 103.156C444.889 104.432 444.536 105.981 444.536 107.804V129.474H435.342V91.3295ZM461.353 91.3295H470.684V129.474H461.353V91.3295ZM461.216 76.7347H471.094V86.3051H461.216V76.7347ZM499.497 102.643C499.338 101.663 498.984 100.786 498.437 100.011C497.891 99.2136 497.161 98.5983 496.25 98.1654C495.361 97.7097 494.359 97.4818 493.242 97.4818C492.194 97.5046 491.271 97.7097 490.474 98.097C489.676 98.4616 489.049 98.9743 488.594 99.6351C488.138 100.296 487.91 101.014 487.91 101.788C487.91 102.837 488.263 103.691 488.97 104.352C489.699 104.99 490.861 105.48 492.456 105.822L498.608 107.189C502.095 107.941 504.692 109.228 506.401 111.051C508.11 112.874 508.965 115.221 508.965 118.092C508.942 120.462 508.293 122.57 507.017 124.415C505.763 126.238 503.986 127.674 501.685 128.722C499.406 129.747 496.785 130.26 493.823 130.26C490.724 130.26 487.99 129.759 485.62 128.756C483.273 127.754 481.405 126.341 480.015 124.518C478.647 122.672 477.839 120.496 477.588 117.99H486.851C487.124 119.607 487.876 120.906 489.106 121.886C490.337 122.843 491.909 123.31 493.823 123.287C495.008 123.287 496.056 123.117 496.968 122.775C497.879 122.41 498.574 121.92 499.053 121.305C499.531 120.667 499.771 119.949 499.771 119.152C499.725 118.104 499.349 117.249 498.643 116.588C497.936 115.927 496.831 115.426 495.327 115.084L489.312 113.717C485.666 112.897 482.977 111.598 481.245 109.821C479.513 108.043 478.659 105.708 478.682 102.814C478.659 100.467 479.274 98.3591 480.527 96.4906C481.781 94.6221 483.524 93.1752 485.757 92.1498C488.013 91.1016 490.588 90.5661 493.481 90.5433C496.398 90.5433 498.95 91.0446 501.138 92.0472C503.325 93.0271 505.057 94.4284 506.333 96.2513C507.609 98.0743 508.372 100.205 508.623 102.643H499.497ZM533.335 130.328C529.552 130.328 526.203 129.508 523.286 127.868C520.392 126.227 518.136 123.903 516.519 120.895C514.901 117.887 514.092 114.412 514.092 110.47C514.092 106.665 514.912 103.258 516.553 100.25C518.193 97.2198 520.461 94.8614 523.354 93.1752C526.248 91.489 529.518 90.6459 533.164 90.6459C537.038 90.6459 540.456 91.5004 543.418 93.2094C546.403 94.9183 548.67 97.4476 550.22 100.797C551.769 104.124 552.373 108.1 552.031 112.726H518.022V106.608L544.922 106.539L542.461 107.565C542.415 105.696 542.005 104.033 541.23 102.575C540.479 101.116 539.419 99.9883 538.052 99.1908C536.685 98.3705 535.112 97.9603 533.335 97.9603C531.466 97.9603 529.792 98.4047 528.311 99.2933C526.852 100.182 525.701 101.424 524.858 103.019C524.038 104.614 523.628 106.391 523.628 108.351V112.145C523.605 114.287 524.015 116.178 524.858 117.819C525.701 119.437 526.864 120.69 528.345 121.578C529.849 122.467 531.558 122.911 533.472 122.911C534.862 122.911 536.138 122.672 537.3 122.194C538.485 121.692 539.476 121.02 540.273 120.177C541.094 119.311 541.675 118.309 542.017 117.169H551.621C551.12 119.79 550.037 122.091 548.374 124.074C546.733 126.056 544.614 127.594 542.017 128.688C539.442 129.782 536.548 130.328 533.335 130.328ZM575.137 78.9564H595.029C598.538 78.9564 601.615 79.6628 604.258 81.0756C606.924 82.4883 608.975 84.4707 610.41 87.0228C611.868 89.5521 612.598 92.4346 612.598 95.6703C612.598 98.906 611.868 101.788 610.41 104.318C608.952 106.847 606.89 108.829 604.224 110.265C601.558 111.701 598.47 112.418 594.961 112.418H581.46V104.249H593.628C595.451 104.249 597.023 103.896 598.345 103.19C599.689 102.461 600.715 101.458 601.421 100.182C602.127 98.906 602.492 97.4362 602.515 95.7728C602.515 94.0866 602.161 92.6055 601.455 91.3295C600.749 90.0306 599.712 89.028 598.345 88.3217C597 87.6153 595.417 87.2621 593.594 87.2621H584.81V129.474H575.137V78.9564ZM633.584 130.158C630.28 130.158 627.329 129.326 624.731 127.662C622.157 125.999 620.129 123.675 618.647 120.69C617.166 117.682 616.437 114.218 616.46 110.299C616.46 106.38 617.212 102.928 618.716 99.9428C620.22 96.9577 622.271 94.6563 624.868 93.0385C627.489 91.3978 630.462 90.5889 633.789 90.6117C635.977 90.6117 638.005 91.0219 639.873 91.8422C641.742 92.6397 643.291 93.7448 644.521 95.1576C645.775 96.5476 646.595 98.0629 646.982 99.7035L645.308 99.6351V91.3295H654.673V129.474H645.41L645.444 122.091L647.085 121.134C646.538 122.82 645.604 124.347 644.282 125.714C642.961 127.081 641.366 128.164 639.497 128.961C637.629 129.759 635.658 130.158 633.584 130.158ZM635.635 122.228C637.572 122.228 639.292 121.727 640.796 120.724C642.3 119.721 643.473 118.32 644.316 116.52C645.16 114.72 645.592 112.646 645.615 110.299C645.615 107.975 645.194 105.913 644.351 104.113C643.507 102.312 642.323 100.923 640.796 99.9428C639.292 98.9629 637.572 98.473 635.635 98.473C633.721 98.473 632.046 98.9743 630.61 99.9769C629.175 100.957 628.07 102.347 627.295 104.147C626.52 105.947 626.133 108.009 626.133 110.333C626.133 112.658 626.52 114.72 627.295 116.52C628.092 118.297 629.209 119.699 630.645 120.724C632.08 121.727 633.743 122.228 635.635 122.228ZM662.979 91.3295H671.934V99.1224L670.635 99.2933C671.045 97.516 671.774 95.9779 672.822 94.6791C673.893 93.3575 675.169 92.3549 676.65 91.6713C678.132 90.9649 679.738 90.6117 681.47 90.6117C681.766 90.6117 682.051 90.6345 682.324 90.6801C682.62 90.7028 682.894 90.737 683.145 90.7826V99.5326C682.917 99.4414 682.575 99.3731 682.119 99.3275C681.663 99.2592 681.219 99.225 680.786 99.225C679.054 99.225 677.539 99.5554 676.24 100.216C674.964 100.877 673.962 101.857 673.232 103.156C672.526 104.432 672.173 105.981 672.173 107.804V129.474H662.979V91.3295ZM694.937 82.0326H704.233V129.474H694.937V82.0326ZM687.998 91.3295H711.172V98.9515H687.998V91.3295ZM725.732 129.474H716.401V91.3295H725.527V99.1566L724.023 99.7719C724.456 97.9489 725.288 96.3425 726.519 94.9525C727.749 93.5398 729.264 92.4574 731.064 91.7054C732.865 90.9307 734.779 90.5547 736.807 90.5775C739.495 90.5775 741.854 91.1586 743.882 92.3207C745.91 93.46 747.471 95.112 748.564 97.2767C749.681 99.4414 750.239 101.982 750.239 104.899V129.474H740.874V106.813C740.874 105.127 740.589 103.68 740.02 102.472C739.473 101.242 738.664 100.319 737.593 99.7035C736.545 99.0655 735.291 98.7465 733.833 98.7465C732.306 98.7465 730.928 99.1224 729.697 99.8744C728.49 100.604 727.521 101.652 726.792 103.019C726.086 104.363 725.732 105.901 725.732 107.633V129.474ZM775.737 130.328C771.955 130.328 768.605 129.508 765.688 127.868C762.795 126.227 760.539 123.903 758.921 120.895C757.303 117.887 756.494 114.412 756.494 110.47C756.494 106.665 757.314 103.258 758.955 100.25C760.596 97.2198 762.863 94.8614 765.757 93.1752C768.651 91.489 771.921 90.6459 775.566 90.6459C779.44 90.6459 782.858 91.5004 785.82 93.2094C788.805 94.9183 791.073 97.4476 792.622 100.797C794.172 104.124 794.775 108.1 794.434 112.726H760.425V106.608L787.324 106.539L784.863 107.565C784.818 105.696 784.408 104.033 783.633 102.575C782.881 101.116 781.821 99.9883 780.454 99.1908C779.087 98.3705 777.515 97.9603 775.737 97.9603C773.869 97.9603 772.194 98.4047 770.713 99.2933C769.255 100.182 768.104 101.424 767.261 103.019C766.44 104.614 766.03 106.391 766.03 108.351V112.145C766.007 114.287 766.418 116.178 767.261 117.819C768.104 119.437 769.266 120.69 770.747 121.578C772.251 122.467 773.96 122.911 775.874 122.911C777.264 122.911 778.54 122.672 779.702 122.194C780.887 121.692 781.878 121.02 782.676 120.177C783.496 119.311 784.077 118.309 784.419 117.169H794.023C793.522 119.79 792.44 122.091 790.776 124.074C789.136 126.056 787.017 127.594 784.419 128.688C781.844 129.782 778.95 130.328 775.737 130.328ZM800.928 91.3295H809.883V99.1224L808.584 99.2933C808.994 97.516 809.723 95.9779 810.771 94.6791C811.842 93.3575 813.118 92.3549 814.6 91.6713C816.081 90.9649 817.687 90.6117 819.419 90.6117C819.715 90.6117 820 90.6345 820.273 90.6801C820.57 90.7028 820.843 90.737 821.094 90.7826V99.5326C820.866 99.4414 820.524 99.3731 820.068 99.3275C819.613 99.2592 819.168 99.225 818.735 99.225C817.004 99.225 815.488 99.5554 814.189 100.216C812.913 100.877 811.911 101.857 811.182 103.156C810.475 104.432 810.122 105.981 810.122 107.804V129.474H800.928V91.3295Z" fill="white"/>
</svg>
